X:1015
T: Mist on the River
S: B.Breathnach:"Ceol Rince na hEireann" IV/219 (gan ainm)
Z: B.Black
L: 1/8
M: 4/4
R: hornpipe
K: D
ag|f2 d2 ddfe|(3dfd B2 BBcd|efga bged|ce (3dcB A2 fg|
(3afd (3afd d2 fe|(3dfd B2 BBcd|efga bgec|\
(3dfa (3dfa d2 A2 ||
(3dfa (3afd (3dfa (3afd|b2 gg g2 ga|bbgg eedd|\
ce (3dcB A2 A2|
(3dfa (3afd (3dfa (3afd|b2 gg g2 ga|bbgg eedc|\
(3dfa (3dfa d2 ||
